X:323
T: Treubruch (64a), S. 195
N: T0212
O: Luxemburg
S: Singendes Volk, Esch-Alzette 1937 posth.]
N: Esch-Alzette, fff Anna Mller, 1.6.1915
N: (64b)- Heffingen, fff Nikolaus Biltgen, 10.9.1933
R: Liebeslieder]
M: 4/4
L: 1/8
K: G
GG | c2c2G2G2 | E2G2c2
cc | d2Bdd2cc | B4z3
d | ecccde | d2BB2
G | A2dd2c | B4z2
G2ee2c | d2ed2
d | ecccde | d2BB2
G | A2dd2c | B4z2

@@@ Tune index: 8377
